!!!OTL: Shengsi liangxianglian
!!!ARE: Asia, China,ÿHenan Queshan
!! IV, 134
!!!SCT: C1950
!!!YEM: Copyright 1995, estate of Helmut Schaffrath.
**kern
*ICvox
*Ivox
*M2/4
*k[b-]
*F:
{8.cc
16cc
8dd
8ff
=1
8.cc
16dd
8cc
8a
=2
8g
16a
16cc
8f
16e
16d
=3
2c}
=4
{8a
8a
8cc
8dd
=5
8ff
8dd
8cc
8r
=6
8cc
8a
8g
8d
=7
2f}
=8
{8a
16a
16cc
8d
8f
=9
8.cc
16dd
8cc
8a
=10
8g
16a
16cc
8d
8f
=11
2g}
=12
{8.a
16a
8cc
8dd
=13
8ff
8dd
8cc
8a
=14
8g
16g
16a
16g
16f
8d
=15
4.cc
8a}
=16
{8g
16g
16a
16g
16f
8d
=17
2f}
==
!!!AGN: Xiaodiao
!!!AMT: simple duple
!!!AIN: vox
!!!EED: Helmut Schaffrath
!!!EEV: 1.0
*-
